!!!OTL: Lex et phase vetus
**kern
*staff1
=--
*clefC1
*k[]
*met(c)
*M4/4
1d
1f
=-
2d
1g
2f
1g
1e
=-
1f
2e
2e
2f
1d
2c
=-
0d
=-
!!linebreak:original
1a
1f
=-
4d
4e
4f
4g
2a
2f
0e
=-
1f
2e
2e
2f
1d
2c
=-
0d
!!linebreak:original
=-
1a
1f
=-
4d
4e
4f
4g
2a
2f
0e
=-
1e
2e
2e
2c
1f
2e
=-
0f
=-
!!linebreak:original
1a
1a
=-
1g
4f
4e
1f
2e
2d
0e
=-
1f
2e
2e
2f
1d
2c
=-
0d
=-=
*-
!!title: @{OTL}, @{GTL}, ed. @{ENC}
!!!pag:
!!!GTL: Hymnbook C
!!!EFL: 
!!!YEM: Creative Commons CC/BY/NC/SA 4.0
!!!ENC: Marcin Konik
!!!END: 2015-0m-dd
!!!EED: Marcin Konik
!!!EEV: 
!!!ONB: Encoded in vim by Marcin Konik
!!!CharacterEncoding: utf-8
!!!RDF**kern: l=long note in original notation
!!!RDF**kern: i=editorial accidental
!!muse2ps: z14jc180F
!!!COM: Anonim
!!!CDT: [?]
!!!TXO: Polish
!!!ODT: 
!!!GTL: Hymnbook C
!!!ARL: Opactwo św. Wojciecha, Staniątki 
!!!voices:	1
